X:1
T:Si l'amytié n'est que
T:Claude Goudimel
T:Source : Livre IX de 27 chansons nouvelles à 4 parties---Paris---N.du Chemin---1551. Editor : André Vierendeels (30/03/18) Notes : Original clefs : C1, C3, C4, F4 Original note values have been halved Editorial accidentals above the staff
T:#
T:Si l'amytié n'est que 
T:©
T:©
T:©
C:Claude Goudimel
Z:©
%%score [ 1 [ 2 3 ] 4 ]
L:1/8
Q:1/4=120
M:2/2
K:C
V:1 treble nm="Soprano" snm="S"
V:2 treble-8 nm="Tenor 1" snm="T 1"
V:3 treble-8 nm="Tenor 2" snm="T 2"
V:4 bass nm="Bass" snm="B"
V:1
 z2 A2 AGFE | F2 F2 E2 A2 | G2 c2 BA A2- | A2 G2 A4 | z2 c2 cBAG | A2 A2 G2 G2 | A2 A2 G2 F2 | %7
w: Si l'a- * * *|* my- tié n'est|que con- * * ion-|* cti- on,|de deux _ _ _|_ moy- tiez, qui|se sui- vent en-|
w: Et l'a- * * *|* dieu n'est que|se- pa- * * ra-|* ti- on,|qui ce _ _ _|_ plai- sant lacq|d'a- mour des- en-|
 EFGE FGAG | FEDC B,C D2- |"^#" D2 C2 D4 :| z2 A2 c2 c2 | B2 G2 A2 A2 | c2 c2 BAGF | EFGA BA A2- | %14
w: sem- * * * * * * *||* * ble,|Las, y a-|t'il qui plus es-|tran- ge sem- * * *||
w: sem- * * * * * * *||* * ble:|||||
 A2 G2 A4- | A8- | A4 z2 A2 | d2 d2 c2 A2 | c2 c2 BAGF | E2 F2 F2 E2 | D2 D2 C4 | z2 A2 AGFE | %22
w: * * ble,|_|* à|deux a- mantz, à|deux a- mantz _ _ _|_ que ce fas-|cheux a- dieu?|En- nuy- * * *|
w: ||||||||
 F2 F2 E2 A2 | G2 c2 B2 A2- | A2 G2 A4 | z2 c2 cBAG |: A2 A2 G2 G2 | A2 A2 G2 F2 | EFGE FGAG | %29
w: * eux mot, qui|tout plai- sir nous|_ em- ble,|et sans _ _ _|_ le- quel se-|rions es- gaulx à|_ _ _ _ _ _ _ _|
w: |||||||
 FEDC B,C D2- |"^#" D2 C2 D4 |1 z2 c2 cBAG :|2"^#" D2 C2 D4- || D8 |] %34
w: |* * Dieu,|et sans _ _ _|(à)- * Dieu.|_|
w: |||||
V:2
 e4 fedc | d2 d2 c2 e2 | e2 g2 gfed | e2 e2 c4 | z2 e2 f2 e2- | e2 d2 e2 e2 | e2 e2 e2 d2- | %7
w: Si l'a- * * *|* my- tié n'est|que con- ion- * * *|* cti- on,|de deux moy-|* ti- ez, qui|se sui- vent en-|
w: Et l'a- * * *|* dieu n'est que|se- pa- ra- * * *|* ti- on,|qui ce plai-|* * sant lacq|d'a- mour des- en-|
 d2 c2 d4 | A2 B4 G2 | A4 A4 :| z2 f2 e2 e2 | g2 G2 d2 d2 | G2 g2 g2 g2 | g4 f2 d2 | e3 d c2 f2 | %15
w: * * sem-||* ble,|Las, y a-|t'il, y a- t'il,|qui plus es- tran-|ge sem- *||
w: * * sem-||* ble:||||||
 e4 f4 | z2 e2 f4 | dcde f2 ed | e2 e2 e2 e2 | c2 d2 d2 c2 | _B2 B2 A4 | z2 e2 fedc | d2 d2 c2 e2 | %23
w: * ble,|à deux|a- * * * * * *|mantz, à deux a-|mantz que ce fas-|cheux a- dieu?|En- nuy- * * *|* eux mot, qui|
w: ||||||||
 e2 g2 gf ed | e4 c4 | z2 e2 f2 e2- |: e2 d2 e2 e2 | e2 e2 e2 d2- | d2 c2 d4 | A2 B4 G2 | A4 A4 |1 %31
w: tout plai- sir _ nous _|em- ble,|et sans le-|* quel se- rions|es- gaulx à _|_ _ Dieu,|e- gaulx à|_ Dieu,|
w: ||||||||
 z2 e2 f2 e2 :|2 A4 A4- || A8 |] %34
w: et sans le-|(à) Dieu.|_|
w: |||
V:3
 z2 A2 A2 A2 | DEFG A2 c2 | e2 e2 dccB/A/ | B2 B2 A2 e2 | edcB A2 c2- | c2 BA B2 B2 | %6
w: Si l'a- my-|tié _ _ _ _ n'est|que con- ion- * * * *|* cti- on, de|deux _ _ _ _ moy-|* * * tiez, qui|
w: Et l'a- dieu|n'est _ _ _ _ que|se- pa- ra- * * * *|* ti- on, qui|ce _ _ _ _ plai-|* * * sant lacq|
 c2 c2 c2 A2- | A2 G2 A2 D2 | F2 F2 GFFE/D/ | E4 D4 :| z2 d2 c2 c2 | d2 e2 f2 f2 | e2 e2 dcdB | %13
w: se sui- vent en-|* * sem- *|ble, en- sem- * * * *|* ble,|Las, y a-|t'il qui plus es-|tran- ge sem- * * *|
w: d'a- mour des- en-|* * sem- *|ble, des- en- * * * *|sem- ble:||||
 cd e2 dcBA | B4 A2 d2- | d2 c2 d2 A2 | cBAG FE A2- | A2 G2 A2 E2 | A2 A2 G4 | z2 A2 A2 A2 | %20
w: ||* * ble, à|deux _ _ _ _ _ a-|* * mantz, à|deux a- mantz,|que ce fas-|
w: |||||||
 F2 G2 E2 c2 | cBAG A2 A2 | DEFG A2 c2 | e2 e2 dc BA | B4 A2 e2 | edcB A2 c2- |: c2 BA B2 B2 | %27
w: cheux a- dieu? En-|nuy- * * * * eux|mot, _ _ _ _ qui|tout plai- sir _ nous _|em- ble, et|sans _ _ _ _ le|_ _ _ quel se-|
w: |||||||
 c2 c2 c2 A2- | A2 G2 A2 D2 | F2 F2 GFFE/D/ | E4 D2 A2 |1 A4 c4 :|2 E4 D4- || D8 |] %34
w: rions es- gaulx _|_ à Dieu, e-|gaulx à _ _ _ _ _|_ Dieu, et|sans le|(à) Dieu.|_|
w: |||||||
V:4
 z4 D,4 | D,2 D,2 A,,2 A,,2 | C,D,E,F, G,2 A,2 | E,2 E,2 A,,4 | z2 A,2 A,G,F,E, | F,2 F,2 E,2 E,2 | %6
w: Si|l'a- my- tié n'est|que _ _ _ _ con-|ion- cti- on,|de deux _ _ _|_ moy- tiéz, qui|
w: Et|l'a- dieu n'est que|se- * * * * pa-|ra- ti- on,|qui ce _ _ _|_ plai- sant lacq|
 A,,2 A,,2 C,2 D,2 | E,4 D,E,F,E, | D,C,B,,A,, G,,2 B,,2 | A,,4 D,4 :| z2 D,2 A,2 A,2 | %11
w: se sui- vent en-|sem- * * * *||* ble,|Las, y a-|
w: d'a- mour des- en-|sem- * * * *||* ble:||
 G,2 E,2 D,2 D,2 | C,2 C,2 G,4 | C,2 C,2 D,2 F,2 | E,2 E,2 F,E,F,G, | A,4 D,4 | z2 A,,2 D,4 | %17
w: t'il qui plus es-|tran ge sem|ble, qui plus es-|tran- ge sem- * * *|* ble,|à deux|
w: ||||||
 B,,4 A,,4 | z2 A,,2 E,2 E,2 | A,,2 D,2 D,2 A,,2 | _B,,2 G,,2 A,,4- | A,,4 z2 D,2 | %22
w: a- mantz,|à deux a-|mantz que ce fas-|cheux a- dieu?|_ En-|
w: |||||
 D,2 D,2 A,,2 A,,2 | C,D,E,F, G,2 A,2 | E,D, E,2 A,,4 | z2 A,2 A,G,F,E, |: F,2 F,2 E,2 E,2 | %27
w: nuy- eux mot, qui|tout _ _ _ _ plai-|sir nous em- ble,|et sans _ _ _|_ le- quel se-|
w: |||||
 A,,2 A,,2 C,2 D,2 | E,4 D,E,F,E, | D,C,B,,A,, G,,2 B,,2 | A,,4 D,4 |1 z2 A,2 A,G,F,E, :|2 %32
w: rions e- gaulx à|Dieu, e- * * *|* * * * gaulx à|_ Dieu|e- sans _ _ _|
w: |||||
 A,,4 D,4- || D,8 |] %34
w: (à) Dieu.|_|
w: ||

